app/dist/common/images/docgo.svg

<svg height="18" viewBox="0 0 18 18" width="18" xmlns="http://www.w3.org/2000/svg"><path d="m0 0h18v18h-18z" fill="#00c1de"/><path d="m9.41 4h-4.41v1h4.41c1.78 0 3.59 2.14 3.59 4 0 1.92-1.79 4-3.59 4h-3.41v-3.54h3.2l-1.2 1.16.86.95 2.51-2.58-2.5-2.72-.87.94 1.2 1.23h-4.2v5.56h4.41c2.53 0 4.59-2.32 4.59-5 0-2.7-2.06-5-4.59-5z" fill="#fff"/></svg>

<!-- by TradingView --><svg xmlns="http://www.w3.org/2000/svg" width="18" height="18" viewBox="0 0 18 18"><path fill="#00C1DE" d="M0 0h18v18H0z"/><path d="M9.41 4H5v1h4.41C11.19 5 13 7.14 13 9c0 1.92-1.79 4-3.59 4H6V9.46h3.2L8 10.62l.86.95 2.51-2.58-2.5-2.72-.87.94 1.2 1.23H5V14h4.41C11.94 14 14 11.68 14 9c0-2.7-2.06-5-4.59-5Z" fill="#fff"/></svg>
